X: 39257
T: Tailgating The Minister
R: reel
M: 4/4
K: Gmajor
|:fgbg egB/c/d|c2BG AGEF|G2GF GAde|A2AG FABd|
fgbg egB/c/d|c2BG AGEF|G2GF GAde|AGFA G2Bd:|
|:c4 ABBB|AGFG AGAB|cEGc BdBG|AGFG ABde|
cEGc BdBG|DGAG FGAB|c/B/Acd ABBB|1 AGFG ABde:|2 AGFG ABdf||

